X: 24443
T: Lucania
R: polka
M: 2/4
K: Gmajor
|:Sd/^d/=d/c/ dz|d/^d/=d/c/ dz|d/^d/=d/c/ d/^d/=d/c/|d^d ef|gggg|g/f/e/f/ gB|
eeee|e/d/c/d/ ee|aaaa|a/g/f/g/ ad'|a/g/f g/f/e|d/^c/d/c/ d/^d/e/f/|
gggg|g/f/e/f/ gB|eeee|e/d/c/d/ ee|a/g/a/b/ c'/b/a/g/|f/a/g/e/ dg|e/f/g af|gg/g/ g2|
|:"(2) To trio"B,E GF/E/|FB, E2|b/a/g/b/ a/g/e/a/|g/f/e/g/ f/e/ d|A,D FE/D/|EA, D2|g/f/e/g/ f/e/d/f/|e/d/^c/e/ d2["D.S."]:|
K:Cmaj
"Trio"G,2 C3/2E/|G4|AG EC|C2 B,2|B,2 D3/2G/|B2B A|^FG D^D|E4|E2 G3/2c/|e2e d|
c/B/c/E/ AG|D2 A,3/2A,/|A,D A,^A,|A,C ED/C/|B,G G,G|C2 [c2E2]||
[A,2E2A2] g/a/g/f/|e/f/e/d/ ^c/B/A/G/|FG AB|cd eA|D2 c/d/c/B/|A/B/A/G/ F/E/D/E/|F/G/A/B/ c/d/e/f/|gg/g/ gg|

